!!!OTL: IN BERLIN SAGT ER MUSST DU SEIN
!!!ARE: Europa, Mitteleuropa, Deutschland
!!!SCT: B0692
!!!YEM: Copyright 1995, estate of Helmut Schaffrath.
**kern
*ICvox
*Ivox
*M3/4
*k[b-e-]
*B-:
{8f
8f
=1
4b-
8f
8f
8f
8b-
=2
4a}
{8f
8f
8f
8f
=3
4cc
8f
8f
8f
8a
=4
4b-}
{8f
8f
8f
8f
=5
8.b-
16f
8f
8f
8f
8b-
=6
4a}
{8f
8f
8f
8f
=7
4ee-
8f
8f
8g
8a
=8
4b-
4r}
==
!!!AGN: Scherz - Lied
!!!ONB: ESAC (Essen Associative Code) Database: BOEHME
!!!AMT: simple triple
!!!AIN: vox
!!!EED: Helmut Schaffrath
!!!EEV: 1.0
*-
